X:1
T:James Gibb editions
T:Adoramus te - Anerio
T:#
%%score [ 1 2 3 4 ]
L:1/8
Q:1/4=200
M:none
K:C
V:1 treble nm="Soprano" snm="S"
V:2 treble nm="Alto" snm="A"
V:3 treble-8 nm="Tenor" snm="T"
V:4 bass nm="Bass" snm="B"
V:1
"^Adoramus te Christe""^Felice Anerio\n(1560-1614)"!p!!<(! A16 | A8 _B8!<)! | A8!>(! A8!>)! | %3
w: A-|do- ra-|mus te,|
 (A4 G2 F2 G8) | A16 | z16 | z16 | z4 F4 A6 A2 | A4 G4 A8 | F8 E8 | (E6 DE F2 E2 !>!E4- | %11
w: Chri\- * * *|ste|||et be- ne-|di- ci- mus|ti- bi,|ti\- * * * * *|
 E2 D2 D4) E8- | E8 z4"^cresc." A4 | A4 A4 c8- | c8 A8 | G4 E4!mf! (F2 G2 A2 B2 | c16) | %17
w: * * * bi,|* qui-|a per san\-|* ctam|cru- cem tu\- * * *||
!>(! c16!>)! | z16 |!p!"^cresc." A8 G4 F4- | F4 D4 (A6 GF | G4 A8 G4) |!f! A4!pp! !>!A8 G4 | %23
w: am,||re de- mi\-|* sti mun\- * *||dum, re- de-|
 F4 E4 (D6 E2 | F4 E2 D2 E8) | D4"^cresc." A4 A4 A4 | (!>!c6 B2 A2 ^G2 A4) | G8 c8- | c8 A8 | %29
w: mi- sti mun\- *||dum, qui- a per|san\- * * * *|ctam cru\-|* cem|
 (A4!>(! G2 F2 G8)!>)! | F8 z4!pp! c4- | c4[Q:1/4=198] _B4[Q:1/4=195] A4[Q:1/4=192] G4 | %32
w: tu\- * * *|am, re\-|* de- mi- sti|
[Q:1/4=185] A16- |[Q:1/4=175] A16 |[Q:1/4=170] A16 |] %35
w: mun\-||dum.|
V:2
!p!!<(! E16 | ^F8 G8!<)! | C8!>(! F4 (F4-!>)! | F2 E2 D2 C2 D8) | E8 z4 A4 | !>!A6 A2 A4 A4 | %6
w: A-|do- ra-|mus te, Chri\-||ste et|be- ne- di- ci-|
 _B4 (!>!A8 G4) | A8 z8 | z8 z4 D4 | A12 A4 | c4 B4 A4 (!>!c4- | c2 B2 A4 ^G8) | %12
w: mus ti\- *|bi,|et|be- ne-|di- ci- mus ti\-||
 A4"^cresc." A4 A4 A4 | (c6 B2 A8) | G8 c8- | c8 A8 |!mf! (A4 G2 F2 G8) | F4!p! !>!A8 G4 | %18
w: bi, qui- a per|san\- * *|ctam cru\-|* cem|tu\- * * *|am, re- de-|
 F4 E4 F8 | E8 z4"^cresc." A4- | A4 G4 F4 E4 | (D4 C4 D8) |!f! E4!pp! !>!c8 c4 | (A8- A2 GF) G4 | %24
w: mi- sti mun-|dum, re\-|* de- mi- sti|mun\- * *|dum, re- de-|mi\- * * * sti|
 A16 | ^F8 z4"^cresc." A4 | A4 A4 !>!c8- | c8 A8 | G4 E4 (F2 G2 A2 B2 |!>(! c16)!>)! | %30
w: mun-|dum, qui-|a per san-|* ctam|cru- cem tu\- * * *||
 A4!pp! (c6 _B2) (A4- | A4 G2 F2) E4 D4 | E16- | E16 | ^F16 |] %35
w: am re\- * de\-|* * * mi- sti|mun\-||dum.|
V:3
!p!!<(! ^c16 | d8 (d8!<)! | f6 e2)!>(! d4 c4!>)! | d16 | ^c8 z4 e4 | !>!f6 f2 f4 e4 | f8 d8 | %7
w: A-|do- ra\-|* * mus te,|Chri-|ste et|be- ne- di- ci-|mus ti-|
 e4 c4 f6 f2 | f4 e4 f8 | d8 c4 c4 | A4 B4 c4 c4 | (A8 B8) | (A2 B2 c2 d2 e2 de f4- | %13
w: bi, et be- ne-|di- ci- mus|ti- bi, et|be- ne- di- ci-|mus *|ti\- * * * * * * *|
 f4) e4 z4"^cresc." e4 | e4 e4 f4 f4 | e4 g8!mf! (f4- | f4 e2 d2 e8) | f4!p! f8 e4 | d4 c4 d8 | %19
w: * bi, qui-|a per san- ctam|cru- cem tu\-||am, re- de-|mi- sti mun-|
 A8 z8 | z4"^cresc." !>!d8 c4 | _B4 A4 B8 |!f! A4!pp! !>!f8 e4 | d4 c4 (f2 e2 d4- | d4 ^c2 B2 c8) | %25
w: dum,|re- de-|mi- sti mun\-|dum, re- de-|mi- sti mun\- * *||
 d16 | z8 z4"^cresc." e4 | e4 e4 !>!f4 f4 | e4 !>!g8 (f4- |!>(! f4 e2 d2 e8)!>)! | f8 z4!pp! f4- | %31
w: dum,|qui-|a per san- ctam|cru- cem tu\-||am, re\-|
 f2 e2 d4 ^c4 (d4- | d8 ^c4 B4 | ^c16) | d16 |] %35
w: * de- mi- sti mun\-|||dum.|
V:4
!p!!<(! A,16 | D,12 G,4!<)! | F,8!>(! F,8!>)! | _B,16 | A,8 z4 A,4 | !>!D6 D2 D4 C4 | D8 _B,8 | %7
w: A-|do- ra-|mus te|Chri-|ste et|be- ne- di- ci-|mus ti-|
 A,8 z8 | z16 | D,8 A,6 A,2 | A,4 G,4 A,8 | (F,8 E,8) | A,16 | z4"^cresc." A,4 A,4 A,4 | C8 F,8 | %15
w: bi,||et be- ne-|di- ci- mus|ti\- *|bi,|qui- a per|san- ctam|
 C8 D8 |!mf! C16 | F,8 z8 | z8 z4!p! D4- | D4"^cresc." C4 _B,4 A,4 | _B,8 A,8 | z16 | %22
w: cru- cem|tu-|am,|re\-|* de- mi- sti|mun- dum,||
 z4!pp! !>!F,8 C4 | D4 A,4 _B,8 | A,16 | D,16 | z4"^cresc." A,4 A,4 A,4 | !>!C8 !>!F,8 | !>!C8 D8 | %29
w: re- de-|mi- sti mun-||dum,|qui- a per|san- ctam|cru- cem|
!>(! C16!>)! | F,8!pp! F,8- | F,4 G,4 A,4 _B,4 | A,16- | A,16 | D,16 |] %35
w: tu-|am, re\-|* de- mi- sti|mun\-||dum.|

